Newaita/actions/22/application-menu.svg

<svg height="22" viewBox="0 0 22 22" width="22" xmlns="http://www.w3.org/2000/svg"><g fill="#424242"><path d="m4.09375 1.992188c-1.261719 0-2.273438 1.011718-2.273438 2.273437 0 1.257813 1.011719 2.273437 2.273438 2.273437 1.257812 0 2.273438-1.015624 2.273438-2.273437 0-1.261719-1.015626-2.273437-2.273438-2.273437zm0 .910156c.753906 0 1.363281.605468 1.363281 1.363281 0 .753906-.609375 1.363281-1.363281 1.363281-.757812 0-1.363281-.609375-1.363281-1.363281 0-.757813.605469-1.363281 1.363281-1.363281zm0 0"/><path d="m19.554688 5.175781h-11.367188c-.253906 0-.457031-.203125-.457031-.457031v-.910156c0-.25.203125-.453125.457031-.453125h11.367188c.253906 0 .457031.203125.457031.453125v.910156c0 .253906-.203125.457031-.457031.457031zm0 0"/><path d="m4.09375 8.8125c-1.261719 0-2.273438 1.015625-2.273438 2.273438 0 1.261718 1.011719 2.273437 2.273438 2.273437 1.257812 0 2.273438-1.011719 2.273438-2.273437 0-1.257813-1.015626-2.273438-2.273438-2.273438zm0 .910156c.753906 0 1.363281.609375 1.363281 1.363282 0 .757812-.609375 1.367187-1.363281 1.367187-.757812 0-1.363281-.609375-1.363281-1.367187 0-.753907.605469-1.363282 1.363281-1.363282zm0 0"/><path d="m19.554688 11.996094h-11.367188c-.253906 0-.457031-.203125-.457031-.453125v-.910157c0-.25.203125-.457031.457031-.457031h11.367188c.253906 0 .457031.207031.457031.457031v.910157c0 .25-.203125.453125-.457031.453125zm0 0"/><path d="m4.09375 15.636719c-1.261719 0-2.273438 1.011719-2.273438 2.273437 0 1.257813 1.011719 2.273438 2.273438 2.273438 1.257812 0 2.273438-1.015625 2.273438-2.273438 0-1.261718-1.015626-2.273437-2.273438-2.273437zm0 .90625c.753906 0 1.363281.609375 1.363281 1.367187 0 .753906-.609375 1.363282-1.363281 1.363282-.757812 0-1.363281-.609376-1.363281-1.363282 0-.757812.605469-1.367187 1.363281-1.367187zm0 0"/><path d="m19.554688 18.820312h-11.367188c-.253906 0-.457031-.207031-.457031-.457031v-.910156c0-.25.203125-.453125.457031-.453125h11.367188c.253906 0 .457031.203125.457031.453125v.910156c0 .25-.203125.457031-.457031.457031zm0 0"/></g></svg>

<svg xmlns="http://www.w3.org/2000/svg" xmlns:xlink="http://www.w3.org/1999/xlink" width="22px" height="22px" viewBox="0 0 22 22" version="1.1">
<g id="surface1">
     <defs>
  <style id="current-color-scheme" type="text/css">
   .ColorScheme-Text { color:#424242; } .ColorScheme-Highlight { color:#eeeeee; }
  </style>
 </defs>
<path style="fill:currentColor" class="ColorScheme-Text" d="M 4.09375 1.992188 C 2.832031 1.992188 1.820312 3.003906 1.820312 4.265625 C 1.820312 5.523438 2.832031 6.539062 4.09375 6.539062 C 5.351562 6.539062 6.367188 5.523438 6.367188 4.265625 C 6.367188 3.003906 5.351562 1.992188 4.09375 1.992188 Z M 4.09375 2.902344 C 4.847656 2.902344 5.457031 3.507812 5.457031 4.265625 C 5.457031 5.019531 4.847656 5.628906 4.09375 5.628906 C 3.335938 5.628906 2.730469 5.019531 2.730469 4.265625 C 2.730469 3.507812 3.335938 2.902344 4.09375 2.902344 Z M 4.09375 2.902344 "/>
     <defs>
  <style id="current-color-scheme" type="text/css">
   .ColorScheme-Text { color:#424242; } .ColorScheme-Highlight { color:#eeeeee; }
  </style>
 </defs>
<path style="fill:currentColor" class="ColorScheme-Text" d="M 19.554688 5.175781 L 8.1875 5.175781 C 7.933594 5.175781 7.730469 4.972656 7.730469 4.71875 L 7.730469 3.808594 C 7.730469 3.558594 7.933594 3.355469 8.1875 3.355469 L 19.554688 3.355469 C 19.808594 3.355469 20.011719 3.558594 20.011719 3.808594 L 20.011719 4.71875 C 20.011719 4.972656 19.808594 5.175781 19.554688 5.175781 Z M 19.554688 5.175781 "/>
     <defs>
  <style id="current-color-scheme" type="text/css">
   .ColorScheme-Text { color:#424242; } .ColorScheme-Highlight { color:#eeeeee; }
  </style>
 </defs>
<path style="fill:currentColor" class="ColorScheme-Text" d="M 4.09375 8.8125 C 2.832031 8.8125 1.820312 9.828125 1.820312 11.085938 C 1.820312 12.347656 2.832031 13.359375 4.09375 13.359375 C 5.351562 13.359375 6.367188 12.347656 6.367188 11.085938 C 6.367188 9.828125 5.351562 8.8125 4.09375 8.8125 Z M 4.09375 9.722656 C 4.847656 9.722656 5.457031 10.332031 5.457031 11.085938 C 5.457031 11.84375 4.847656 12.453125 4.09375 12.453125 C 3.335938 12.453125 2.730469 11.84375 2.730469 11.085938 C 2.730469 10.332031 3.335938 9.722656 4.09375 9.722656 Z M 4.09375 9.722656 "/>
     <defs>
  <style id="current-color-scheme" type="text/css">
   .ColorScheme-Text { color:#424242; } .ColorScheme-Highlight { color:#eeeeee; }
  </style>
 </defs>
<path style="fill:currentColor" class="ColorScheme-Text" d="M 19.554688 11.996094 L 8.1875 11.996094 C 7.933594 11.996094 7.730469 11.792969 7.730469 11.542969 L 7.730469 10.632812 C 7.730469 10.382812 7.933594 10.175781 8.1875 10.175781 L 19.554688 10.175781 C 19.808594 10.175781 20.011719 10.382812 20.011719 10.632812 L 20.011719 11.542969 C 20.011719 11.792969 19.808594 11.996094 19.554688 11.996094 Z M 19.554688 11.996094 "/>
     <defs>
  <style id="current-color-scheme" type="text/css">
   .ColorScheme-Text { color:#424242; } .ColorScheme-Highlight { color:#eeeeee; }
  </style>
 </defs>
<path style="fill:currentColor" class="ColorScheme-Text" d="M 4.09375 15.636719 C 2.832031 15.636719 1.820312 16.648438 1.820312 17.910156 C 1.820312 19.167969 2.832031 20.183594 4.09375 20.183594 C 5.351562 20.183594 6.367188 19.167969 6.367188 17.910156 C 6.367188 16.648438 5.351562 15.636719 4.09375 15.636719 Z M 4.09375 16.542969 C 4.847656 16.542969 5.457031 17.152344 5.457031 17.910156 C 5.457031 18.664062 4.847656 19.273438 4.09375 19.273438 C 3.335938 19.273438 2.730469 18.664062 2.730469 17.910156 C 2.730469 17.152344 3.335938 16.542969 4.09375 16.542969 Z M 4.09375 16.542969 "/>
     <defs>
  <style id="current-color-scheme" type="text/css">
   .ColorScheme-Text { color:#424242; } .ColorScheme-Highlight { color:#eeeeee; }
  </style>
 </defs>
<path style="fill:currentColor" class="ColorScheme-Text" d="M 19.554688 18.820312 L 8.1875 18.820312 C 7.933594 18.820312 7.730469 18.613281 7.730469 18.363281 L 7.730469 17.453125 C 7.730469 17.203125 7.933594 17 8.1875 17 L 19.554688 17 C 19.808594 17 20.011719 17.203125 20.011719 17.453125 L 20.011719 18.363281 C 20.011719 18.613281 19.808594 18.820312 19.554688 18.820312 Z M 19.554688 18.820312 "/>
</g>
</svg>
